Newaita-dark/actions/16/color-picker.svg

<svg height="16" viewBox="0 0 16 16" width="16" xmlns="http://www.w3.org/2000/svg"><path d="m7.925781 2.113281c-.214843.003907-.414062.113281-.535156.292969-.65625.984375-1.574219 2.316406-2.335937 3.632812-.761719 1.3125-1.414063 2.542969-1.414063 3.679688h-.003906c0 2.378906 1.917969 4.296875 4.300781 4.296875s4.300781-1.917969 4.300781-4.296875h-.003906c0-1.136719-.648437-2.367188-1.410156-3.679688-.765625-1.316406-1.679688-2.648437-2.339844-3.632812-.121094-.1875-.332031-.296875-.558594-.292969zm.011719 1.84375c.574219.855469 1.199219 1.796875 1.746094 2.742188.726562 1.25 1.234375 2.5 1.234375 3.019531h-.003907c0 1.648438-1.328124 2.976562-2.976562 2.976562s-2.976562-1.328124-2.976562-2.976562h-.003907c0-.519531.507813-1.769531 1.234375-3.019531.550782-.945313 1.175782-1.886719 1.746094-2.742188zm0 0" fill="#e0e0e0"/></svg>

<?xml version="1.0" encoding="UTF-8"?>
<svg xmlns="http://www.w3.org/2000/svg" xmlns:xlink="http://www.w3.org/1999/xlink" width="16px" height="16px" viewBox="0 0 16 16" version="1.1">
<g id="surface1">
<path style=" stroke:none;fill-rule:nonzero;fill:rgb(87.843138%,87.843138%,87.843138%);fill-opacity:1;" d="M 7.925781 2.113281 C 7.710938 2.117188 7.511719 2.226562 7.390625 2.40625 C 6.734375 3.390625 5.816406 4.722656 5.054688 6.039062 C 4.292969 7.351562 3.640625 8.582031 3.640625 9.71875 L 3.636719 9.71875 C 3.636719 12.097656 5.554688 14.015625 7.9375 14.015625 C 10.320312 14.015625 12.238281 12.097656 12.238281 9.71875 L 12.234375 9.71875 C 12.234375 8.582031 11.585938 7.351562 10.824219 6.039062 C 10.058594 4.722656 9.144531 3.390625 8.484375 2.40625 C 8.363281 2.21875 8.152344 2.109375 7.925781 2.113281 Z M 7.9375 3.957031 C 8.511719 4.8125 9.136719 5.753906 9.683594 6.699219 C 10.410156 7.949219 10.917969 9.199219 10.917969 9.71875 L 10.914062 9.71875 C 10.914062 11.367188 9.585938 12.695312 7.9375 12.695312 C 6.289062 12.695312 4.960938 11.367188 4.960938 9.71875 L 4.957031 9.71875 C 4.957031 9.199219 5.464844 7.949219 6.191406 6.699219 C 6.742188 5.753906 7.367188 4.8125 7.9375 3.957031 Z M 7.9375 3.957031 "/>
</g>
</svg>
